X: 1
T: Tomalena
T: 5x32R 5C (SF Colln 2)
P: Fen [2x]
C: Gary Thomas
R: Reel
K: G
M: 4/4
L: 1/8
|:D2|"G"G2 dc BA GB|"D"A2 GA "G"BG D2|"G"G2 dc BA GB|"D"A2 D2 "G"G2 D2|"G"G2 dc BA GB|"D"A2 GA BG D2|"C"E2 CE "D"A,2 F2|"G"G6 GA|
"G"B2 dc BA GF|"C"E2 CD E2 E2|"Am"A2 ^cB AG FE|"D"F2 A2 d2 dc|"G"B2 GF "C"E2 cB|"A"AG AE "D"D2 BA|"C"GF EF "D"D2 F2|"G"G6:|   